app/dist/common/images/new-work-se.svg

<svg height="18" viewBox="0 0 18 18" width="18" xmlns="http://www.w3.org/2000/svg"><path d="m0 0h18v18h-18z" fill="#f0f3fa"/><path d="m10.26 4c2.6 0 3.74.91 3.74 2.59 0 1.67-1.41 7.91-4.04 7.91-2.38 0-6.46-4.68-6.46-7.09-0-2.4 4.81-3.41 6.76-3.41z" fill="#007575"/><path d="m10.67 10h.86l.47-3h-.63l-.33 2.46-.36-2.46h-.7l-.38 2.46-.28-2.46h-.66l.46 3h.84l.36-2.29zm-3.22 0h.94v-3h-.65v1.21c0 .48.05.88.09 1.12l-.93-2.33h-.9v3h.65v-1.1c0-.52-.05-.9-.08-1.17l-.01-.05.9 2.32z" fill="#fff"/></svg>

<!-- by TradingView --><svg width="18" height="18" viewBox="0 0 18 18" xmlns="http://www.w3.org/2000/svg"><path fill="#F0F3FA" d="M0 0h18v18H0z"/><path d="M10.26 4c2.6 0 3.74.91 3.74 2.59 0 1.67-1.41 7.91-4.04 7.91-2.38 0-6.46-4.68-6.46-7.09C3.5 5.01 8.31 4 10.26 4Z" fill="#007575"/><path d="M10.67 10h.86L12 7h-.63l-.33 2.46L10.68 7h-.7L9.6 9.46 9.32 7h-.66l.46 3h.84l.36-2.29.35 2.29Zm-3.22 0h.94V7h-.65v1.21c0 .48.05.88.09 1.12L6.9 7H6v3h.65V8.9c0-.52-.05-.9-.08-1.17l-.01-.05.9 2.32Z" fill="#fff"/></svg>
